X:88
T:Lord Lovat Beheaded
T:Mac Shimi mor a basachadh
R:Slow Air
S:Simon Fraser Collection
N:No.59
O:Scottish
M:C
L:1/8
Q:1/4=70
K:G
c|B>cB>A G>FE>^G|E>AA>^G B3c|B>cB>A G>FE>^G|E<A B>^G A2A:|
B|c>de>f g>fe>g|d>cc>B B2 B/A/B/d/|e>AB>A G>FE>^G|E<A B>^G A2 AB|
c>de>f g>fe>g|d>cc>B B2 B/A/B/d/|e>AB>A G>FE>^G|E<A B>G A2A||

